X:369
T:Mrs. MacPherson of Inveran
C:Joe Buchanan's Scottish Tome - Page 217.2
I:217 2
Z:Carl Allison
C:P.M. G. S. MacLennan
R:March
L:1/8
M:4/4
K:D
g | "D"f2 a>f dfAd | "D"f2 a>f "A7"feef | "A7"e2 g>e ceAc | "A"e2 f>g "D"fddg |
"D"f2 a>f dfAd | "D"f2 a>f "A7"feef | "A7"e2 g>e ceAc | "A"e2 f>g "D"fdd :|
A | "D"d2 A>d dfAd | "D"d2 A>d "A7"dccd | "A7"c2 A>c ceAc | "A"c2 A>c "D"eddA |
"D"d2 A>d dfAd | "D"d2 A>d "A7"dccd | "A7"c2 A>B cdef | "A7"gfeg "D"fdd :|
g | "D"f2 g>f affg | "D"a2 f>g "A7"feef | "A7"e2 f>e geef | "A7"g2 e>f "D"eddg |
"D"f2 g>f affg | "D"a2 f>g "A7"feef | "A7"e2 f>e geef | "A7"g2 e>f "D"edd :|

